X: 4258
T: IVY HOUSE
%R: jig
B: James Kerr "Merry Melodies" v.4 p.28 #258
Z: 2016 John Chambers <jc:trillian.mit.edu>
M: 6/8
L: 1/8
K: G
|:\
dBd dBd | g3  gfe | dBd dcB | AFD D2d |\
dBd dBd | g3  gfe | dBd cBA | G3- G2B :|
|:\
BAB GAB | cde d2c | BAB GAB | AFD D2d |\
dBd dBd | efg gfe | dBd cBA | G3- G2B :|

%%sep 1 1 500
%%sep 1 1 500

